X:1
T:The Bonny Bunch of Roses-O
M:4/4
L:1/4
K:A
 c/2B/2| A FF/2-E/2 E| A- G A B| c e e c|B/2-A/2 F E z/2 c/2|B/2-A/2 F F E|\
 A- G A B/2B/2| c e e c|B/2-A/2 F Fc/2-d/2| e ee/2-c/2A/2-c/2| e e2 e|\
 f e c B| B3 A| c E E c|B/2-A/2 F F E| A G A B| c e/2e/2 e/2f/2 e/2c/2|\
 e A A2|
